X:1
T:Title
%%score 1 { ( 2 4 ) | 3 }
L:1/8
M:2/4
K:Bb
V:1 treble nm="Voice"
V:2 treble nm="Piano"
V:4 treble 
V:3 bass 
V:1
"^Allegro agitato"!f! F |: B2 F F |{F} E D z B | c c B A | B2 z F | c c B A |{c} B A z B | %7
 c F G A | B2 z F | G2 F G | B A z B | c2 B c | e d z F | (GB) (Ac) |1 B2 z F :|2 B2 z |] %16
V:2
 z |: [FB]/D/[FB]/D/ [FA]/C/[FA]/C/ | [EG]/C/[EG]/C/ [DF]/B,/[DF]/B,/ | %3
 [EG]/C/[EG]/C/ [EG]/C/[EG]/C/ | [DF]/B,/[DF]/B,/ [DF]/B,/[DF]/B,/ | %5
 [EG]/C/[EG]/C/ [EG]/C/[EG]/C/ | [EG]/C/[EG]/C/ [EG]/C/[EG]/C/ | [EA]/C/[EA]/C/ [EA]/C/[EA]/C/ | %8
 [DB]/B,/[DB]/B,/ [DB]/B,/[DB]/B,/ | [EG]/B,/[EG]/B,/ [EG]/B,/[EG]/B,/ | %10
 [DF]/B,/[DF]/B,/ [DF]/B,/[DF]/B,/ | [EA]/C/[EA]/C/ [EA]/C/[EA]/C/ | %12
 [EA]/C/[EA]/C/ [EA]/C/[EA]/C/ | [DG]/B,/[DG]/B,/ [EF]/C/[EF]/C/ |1 %14
 [DF]/B,/[DF]/B,/ [DF]/B,/[DF]/B,/ :|2 [DF]2 z |] %16
V:3
 z |: [B,,B,][B,,B,][F,,F,][F,,F,] | [C,,C,][C,,C,][B,,,B,,][B,,,B,,] | E,E,C,C, | %4
 [B,,,B,,][B,,,B,,][B,,,B,,][B,,,B,,] | E,E,C,C, | [E,,E,][E,,E,][E,,E,][E,,E,] | %7
 [F,,F,][F,,F,][F,,F,][F,,F,] | [B,,,B,,][B,,,B,,][B,,,B,,][B,,,B,,] | E,,E,E,E, | %10
 [B,,,B,,][B,,,B,,][B,,,B,,][B,,,B,,] | [F,,F,][F,,F,][F,,F,][F,,F,] | %12
 [F,,F,][F,,F,][F,,F,][F,,F,] | [B,,,B,,][B,,,B,,][F,,,F,,][F,,,F,,] |1 %14
 [B,,,B,,][B,,,B,,][B,,,B,,][B,,,B,,] :|2 [B,,,B,,]2 z |] %16
V:4
 x |: x4 | x4 | x4 | x4 | x4 | x4 | x4 | x4 | x4 | x4 | x4 | x4 | x4 |1 x4 :|2 B,2 x |] %16

